shelter/assets/icons/icon-sleeping-area.svg

<svg fill="none" height="60" viewBox="0 0 60 60" width="60" xmlns="http://www.w3.org/2000/svg"><g fill="#f1cdb3"><path d="m57.9526 19.9663-26.9722-19.740044c-.2008-.1470098-.4433-.226256-.6922-.226256s-.4913.0792462-.6921.226256l-26.97215 19.740044c-.52219.3822-.63575 1.1155-.25348 1.6378l3.52535 4.817c.09086.1242.20531.2293.33681.3093.13149.08.27747.1333.42957.1568s.30735.0169.45688-.0196.29039-.1021.41455-.1931l1.06383-.7786v32.9321c0 .6471.52477 1.1718 1.17188 1.1718h41.09976c.6471 0 1.1719-.5247 1.1719-1.1718v-32.8867l1.0019.7332c.1242.091.2651.1565.4146.193s.3047.0431.4568.0196.298-.0768.4295-.1568c.1315-.0799.246-.185.3368-.3092l3.5254-4.817c.3824-.5225.2688-1.2556-.2534-1.6378zm-8.2554 33.1193h-27.7256c-.6471 0-1.1719.5247-1.1719 1.1718s.5248 1.1719 1.1719 1.1719h27.7256v2.2269h-38.7561v-32.5512h27.4432c.6471 0 1.1719-.5247 1.1719-1.1718s-.5248-1.1719-1.1719-1.1719h-25.503l17.407-12.74 19.4089 14.2047zm3.7842-28.9945-22.501-16.46762c-.2008-.1471-.4432-.22636-.6921-.22629-.2489-.0001-.4914.07917-.6921.22629l-22.5012 16.46762-2.14113-2.9257 25.33453-18.54149 25.3345 18.54149z"/><path d="m43.7555 23.7046c-.0152-.0751-.0387-.1489-.068-.2204-.0293-.0703-.0656-.1383-.1078-.2016-.0422-.0642-.0909-.1239-.1453-.1781-.2203-.219-.5179-.3424-.8285-.3435-.3082 0-.6106.1254-.8284.3435-.0539.0539-.1031.1137-.1453.1781-.0422.0633-.0785.1313-.1078.2016-.0293.0715-.0528.1453-.0668.2204-.0153.075-.0235.1523-.0235.2284 0 .0762.0082.1536.0235.2285.014.0749.0375.1488.0668.2203.0293.0705.0656.1384.1078.2017.0422.0645.0914.1241.1453.1781.0539.0539.1137.1032.1781.1453.0633.0421.1313.0786.2027.1079.0704.0293.1441.0527.2192.0668.075.0152.1523.0233.2284.0233.0762 0 .1536-.0081.2285-.0233.0752-.0146.1486-.037.2191-.0668.0715-.0293.1395-.0658.2028-.1079.0644-.0421.1241-.0914.1781-.1453.0539-.0539.1031-.1136.1453-.1781.0422-.0633.0785-.1312.1078-.2017.0293-.0713.0528-.1453.068-.2203s.0221-.1523.0221-.2285c0-.0761-.007-.1535-.0221-.2284z"/><path d="m18.8986 54.0281c-.015-.075-.0374-.1484-.0667-.2191-.0293-.0704-.0658-.1395-.1079-.2027-.0425-.064-.0911-.1237-.1452-.1782-.0539-.0539-.1138-.1019-.1782-.1453-.128-.085-.2712-.1443-.4218-.1746-.1512-.0305-.307-.0305-.4582 0-.0739.0152-.1477.0375-.2192.0668-.0703.0293-.1383.0656-.2015.1078-.0645.0422-.1244.0914-.1782.1453-.055.0539-.1031.1149-.1464.1782-.085.1279-.1443.2712-.1745.4218-.0154.0762-.0223.1524-.0223.2285-.0005.154.0297.3066.0889.4488.0293.0704.0658.1384.1079.2027.0433.0633.0914.1231.1464.1781.0539.0541.1138.1033.1782.1453.0632.0422.1312.0786.2015.1079.0715.0292.1453.0515.2192.0667.0761.0153.1535.0235.2297.0235.2315-.001.4576-.0698.6503-.1981.0643-.0421.124-.0908.1782-.1453.0539-.055.1031-.1147.1452-.1781.1284-.193.1973-.4196.198-.6515 0-.0761-.0082-.1524-.0234-.2285z"/><path d="m44.8447 30.5741c0-.9938-.3897-1.9265-1.0975-2.626-.701-.6927-1.6596-1.0805-2.6371-1.0721-.3082.0033-.6147.0448-.9127.1237-2.17.5557-4.2902 1.2905-6.3387 2.1969-1.1699-.2767-2.3681-.416-3.5703-.4153-.677 0-1.3599.0444-2.0304.132-.5177.0683-1.0316.1628-1.5397.2833-2.0482-.9063-4.168-1.641-6.3377-2.1967-.0105-.0029-.0209-.0057-.0314-.0084-1.1534-.2937-2.3429-.0296-3.2632.7256-.9202.7549-1.4116 1.8696-1.3484 3.0574.0645 1.2193.1845 2.4351.3594 3.6435.1572 1.0832.3579 2.1596.6018 3.2266-.3628.9283-.6156 1.8959-.7532 2.883-.0572.4121-.0861.8277-.0865 1.2438 0 5.2459 4.5746 9.5139 10.1977 9.5139h8.4636c3.0822 0 5.9657-1.2818 7.9113-3.5167 1.783-2.0481 2.5642-4.62 2.1997-7.2417-.0785-.5621-.1941-1.1184-.3462-1.6652-.1153-.4119-.2509-.8179-.4064-1.2164.5158-2.2575.8372-4.5552.9606-6.8676.0036-.0686.0053-.1361.0053-.2036zm-2.3459.0729-.0003.004c-.1224 2.298-.4524 4.5802-.9861 6.8187-.0581.2436-.0366.4995.0613.73.1786.4202.33.8514.4532 1.291.1241.4463.2184.9003.2825 1.359.2698 1.94-.3148 3.8507-1.646 5.3799-1.5004 1.7233-3.7395 2.7118-6.1436 2.7118h-8.4636c-4.3306 0-7.8539-3.2165-7.8539-7.17 0-.3035.0217-.614.0642-.9218.1274-.9116.3748-1.8023.7358-2.6489.0983-.2308.1199-.4869.0618-.7309-.2667-1.119-.483-2.2495-.6482-3.3879-.1647-1.138-.2777-2.2829-.3384-3.4311-.0232-.436.157-.8448.4946-1.1219.2473-.2029.5478-.3093.857-.3093.1054 0 .2119.0123.3177.0375l.0233.0062c2.1793.5561 4.3051 1.3041 6.3524 2.2352.2473.1127.526.1361.7886.0661.5426-.1447 1.0941-.254 1.6509-.3274.5692-.0744 1.15-.1122 1.7257-.1122 1.1478 0 2.2837.1479 3.3765.4396.2623.0696.5407.0468.7878-.0656 2.0546-.9344 4.1882-1.6845 6.3754-2.2417.1001-.024.2026-.0366.3055-.0377h.0153c.3503 0 .6962.1436.951.3953.1274.1251.2286.2743.2975.439.069.1647.1043.3416.1038.5201.0001.0243-.0004.0484-.0017.073z"/><path d="m32.4862 43.5662c-.5657 0-1.026-.4603-1.026-1.0259 0-.6471-.5247-1.1719-1.1719-1.1719s-1.1719.5248-1.1719 1.1719v.0428c0 .5656-.4602 1.0259-1.0258 1.0259-.6473 0-1.1719.5248-1.1719 1.1719s.5246 1.1719 1.1719 1.1719c.8507 0 1.6286-.3172 2.2223-.8393.607.5149 1.3773.7972 2.1733.7964.6471 0 1.1718-.5248 1.1718-1.1719 0-.6472-.5247-1.1718-1.1718-1.1718z"/><path d="m26.1919 38.1664-1.7407-.7976c-.1531-.0703-.3196-.1067-.4881-.1067-.1684 0-.3349.0364-.4881.1067l-1.7408.7976c-.5884.2695-.8469.965-.5772 1.5534.064.1399.1551.2658.2678.3706.1128.1047.245.1862.3893.2398s.2977.0783.4514.0726c.1538-.0057.305-.0416.4449-.1057l1.2526-.5739 1.2526.5739c.5881.2698 1.2839.0111 1.5535-.5773.2697-.5884.0111-1.284-.5772-1.5534z"/><path d="m38.8423 38.1662-1.7407-.7976c-.1531-.0703-.3196-.1066-.4881-.1066-.1684 0-.3349.0363-.488.1066l-1.7408.7976c-.5884.2695-.8469.965-.5772 1.5534.2696.5887.9651.8473 1.5534.5773l1.2526-.5739 1.2527.5739c.1528.0703.3191.1067.4873.1067.4442 0 .869-.2538 1.0661-.684.2696-.5884.0112-1.2839-.5773-1.5534z"/></g></svg>

<svg width="60" height="60" viewBox="0 0 60 60" fill="none" xmlns="http://www.w3.org/2000/svg">
<path d="M57.9526 19.9663L30.9804 0.226256C30.7796 0.0792462 30.5371 0 30.2882 0C30.0393 0 29.7969 0.0792462 29.5961 0.226256L2.62395 19.9663C2.10176 20.3485 1.9882 21.0818 2.37047 21.6041L5.89582 26.4211C5.98668 26.5453 6.10113 26.6504 6.23263 26.7304C6.36412 26.8104 6.5101 26.8637 6.6622 26.8872C6.8143 26.9107 6.96955 26.9041 7.11908 26.8676C7.26861 26.8311 7.40947 26.7655 7.53363 26.6745L8.59746 25.8959V58.828C8.59746 59.4751 9.12223 59.9998 9.76934 59.9998H50.8691C51.5162 59.9998 52.041 59.4751 52.041 58.828V25.9413L53.0429 26.6745C53.1671 26.7655 53.308 26.831 53.4575 26.8675C53.607 26.904 53.7622 26.9106 53.9143 26.8871C54.0664 26.8636 54.2123 26.8103 54.3438 26.7303C54.4753 26.6504 54.5898 26.5453 54.6806 26.4211L58.206 21.6041C58.5884 21.0816 58.4748 20.3485 57.9526 19.9663ZM49.6972 53.0856H21.9716C21.3245 53.0856 20.7997 53.6103 20.7997 54.2574C20.7997 54.9045 21.3245 55.4293 21.9716 55.4293H49.6972V57.6562H10.9411V25.105H38.3843C39.0314 25.105 39.5562 24.5803 39.5562 23.9332C39.5562 23.2861 39.0314 22.7613 38.3843 22.7613H12.8813L30.2883 10.0213L49.6972 24.226V53.0856ZM53.4814 24.0911L30.9804 7.62348C30.7796 7.47638 30.5372 7.39712 30.2883 7.39719C30.0394 7.39709 29.7969 7.47636 29.5962 7.62348L7.095 24.0911L4.95387 21.1654L30.2884 2.62391L55.6229 21.1654L53.4814 24.0911Z" fill="#F1CDB3"/>
<path d="M43.7555 23.7046C43.7403 23.6295 43.7168 23.5557 43.6875 23.4842C43.6582 23.4139 43.6219 23.3459 43.5797 23.2826C43.5375 23.2184 43.4888 23.1587 43.4344 23.1045C43.2141 22.8855 42.9165 22.7621 42.6059 22.761C42.2977 22.761 41.9953 22.8864 41.7775 23.1045C41.7236 23.1584 41.6744 23.2182 41.6322 23.2826C41.59 23.3459 41.5537 23.4139 41.5244 23.4842C41.4951 23.5557 41.4716 23.6295 41.4576 23.7046C41.4423 23.7796 41.4341 23.8569 41.4341 23.933C41.4341 24.0092 41.4423 24.0866 41.4576 24.1615C41.4716 24.2364 41.4951 24.3103 41.5244 24.3818C41.5537 24.4523 41.59 24.5202 41.6322 24.5835C41.6744 24.648 41.7236 24.7076 41.7775 24.7616C41.8314 24.8155 41.8912 24.8648 41.9556 24.9069C42.0189 24.949 42.0869 24.9855 42.1583 25.0148C42.2287 25.0441 42.3024 25.0675 42.3775 25.0816C42.4525 25.0968 42.5298 25.1049 42.6059 25.1049C42.6821 25.1049 42.7595 25.0968 42.8344 25.0816C42.9096 25.067 42.983 25.0446 43.0535 25.0148C43.125 24.9855 43.193 24.949 43.2563 24.9069C43.3207 24.8648 43.3804 24.8155 43.4344 24.7616C43.4883 24.7077 43.5375 24.648 43.5797 24.5835C43.6219 24.5202 43.6582 24.4523 43.6875 24.3818C43.7168 24.3105 43.7403 24.2365 43.7555 24.1615C43.7707 24.0865 43.7776 24.0092 43.7776 23.933C43.7776 23.8569 43.7706 23.7795 43.7555 23.7046Z" fill="#F1CDB3"/>
<path d="M18.8986 54.0281C18.8836 53.9531 18.8612 53.8797 18.8319 53.809C18.8026 53.7386 18.7661 53.6695 18.724 53.6063C18.6815 53.5423 18.6329 53.4826 18.5788 53.4281C18.5249 53.3742 18.465 53.3262 18.4006 53.2828C18.2726 53.1978 18.1294 53.1385 17.9788 53.1082C17.8276 53.0777 17.6718 53.0777 17.5206 53.1082C17.4467 53.1234 17.3729 53.1457 17.3014 53.175C17.2311 53.2043 17.1631 53.2406 17.0999 53.2828C17.0354 53.325 16.9755 53.3742 16.9217 53.4281C16.8667 53.482 16.8186 53.543 16.7753 53.6063C16.6903 53.7342 16.631 53.8775 16.6008 54.0281C16.5854 54.1043 16.5785 54.1805 16.5785 54.2566C16.578 54.4106 16.6082 54.5632 16.6674 54.7054C16.6967 54.7758 16.7332 54.8438 16.7753 54.9081C16.8186 54.9714 16.8667 55.0312 16.9217 55.0862C16.9756 55.1403 17.0355 55.1895 17.0999 55.2315C17.1631 55.2737 17.2311 55.3101 17.3014 55.3394C17.3729 55.3686 17.4467 55.3909 17.5206 55.4061C17.5967 55.4214 17.6741 55.4296 17.7503 55.4296C17.9818 55.4286 18.2079 55.3598 18.4006 55.2315C18.4649 55.1894 18.5246 55.1407 18.5788 55.0862C18.6327 55.0312 18.6819 54.9715 18.724 54.9081C18.8524 54.7151 18.9213 54.4885 18.922 54.2566C18.922 54.1805 18.9138 54.1042 18.8986 54.0281Z" fill="#F1CDB3"/>
<path d="M44.8447 30.5741C44.8447 29.5803 44.455 28.6476 43.7472 27.9481C43.0462 27.2554 42.0876 26.8676 41.1101 26.876C40.8019 26.8793 40.4954 26.9208 40.1974 26.9997C38.0274 27.5554 35.9072 28.2902 33.8587 29.1966C32.6888 28.9199 31.4906 28.7806 30.2884 28.7813C29.6114 28.7813 28.9285 28.8257 28.258 28.9133C27.7403 28.9816 27.2264 29.0761 26.7183 29.1966C24.6701 28.2903 22.5503 27.5556 20.3806 26.9999C20.3701 26.997 20.3597 26.9942 20.3492 26.9915C19.1958 26.6978 18.0063 26.9619 17.086 27.7171C16.1658 28.472 15.6744 29.5867 15.7376 30.7745C15.8021 31.9938 15.9221 33.2096 16.097 34.418C16.2542 35.5012 16.4549 36.5776 16.6988 37.6446C16.336 38.5729 16.0832 39.5405 15.9456 40.5276C15.8884 40.9397 15.8595 41.3553 15.8591 41.7714C15.8591 47.0173 20.4337 51.2853 26.0568 51.2853H34.5204C37.6026 51.2853 40.4861 50.0035 42.4317 47.7686C44.2147 45.7205 44.9959 43.1486 44.6314 40.5269C44.5529 39.9648 44.4373 39.4085 44.2852 38.8617C44.1699 38.4498 44.0343 38.0438 43.8788 37.6453C44.3946 35.3878 44.716 33.0901 44.8394 30.7777C44.843 30.7091 44.8447 30.6416 44.8447 30.5741ZM42.4988 30.647L42.4985 30.651C42.3761 32.949 42.0461 35.2312 41.5124 37.4697C41.4543 37.7133 41.4758 37.9692 41.5737 38.1997C41.7523 38.6199 41.9037 39.0511 42.0269 39.4907C42.151 39.937 42.2453 40.391 42.3094 40.8497C42.5792 42.7897 41.9946 44.7004 40.6634 46.2296C39.163 47.9529 36.9239 48.9414 34.5198 48.9414H26.0562C21.7256 48.9414 18.2023 45.7249 18.2023 41.7714C18.2023 41.4679 18.224 41.1574 18.2665 40.8496C18.3939 39.938 18.6413 39.0473 19.0023 38.2007C19.1006 37.9699 19.1222 37.7138 19.0641 37.4698C18.7974 36.3508 18.5811 35.2203 18.4159 34.0819C18.2512 32.9439 18.1382 31.799 18.0775 30.6508C18.0543 30.2148 18.2345 29.806 18.5721 29.5289C18.8194 29.326 19.1199 29.2196 19.4291 29.2196C19.5345 29.2196 19.641 29.2319 19.7468 29.2571L19.7701 29.2633C21.9494 29.8194 24.0752 30.5674 26.1225 31.4985C26.3698 31.6112 26.6485 31.6346 26.9111 31.5646C27.4537 31.4199 28.0052 31.3106 28.562 31.2372C29.1312 31.1628 29.712 31.125 30.2877 31.125C31.4355 31.125 32.5714 31.2729 33.6642 31.5646C33.9265 31.6342 34.2049 31.6114 34.452 31.499C36.5066 30.5646 38.6402 29.8145 40.8274 29.2573C40.9275 29.2333 41.03 29.2207 41.1329 29.2196H41.1482C41.4985 29.2196 41.8444 29.3632 42.0992 29.6149C42.2266 29.74 42.3278 29.8892 42.3967 30.0539C42.4657 30.2186 42.501 30.3955 42.5005 30.574C42.5006 30.5983 42.5001 30.6224 42.4988 30.647Z" fill="#F1CDB3"/>
<path d="M32.4862 43.5662C31.9205 43.5662 31.4602 43.1059 31.4602 42.5403C31.4602 41.8932 30.9355 41.3684 30.2883 41.3684C29.6411 41.3684 29.1164 41.8932 29.1164 42.5403V42.5831C29.1164 43.1487 28.6562 43.609 28.0906 43.609C27.4433 43.609 26.9187 44.1338 26.9187 44.7809C26.9187 45.428 27.4433 45.9528 28.0906 45.9528C28.9413 45.9528 29.7192 45.6356 30.3129 45.1135C30.9199 45.6284 31.6902 45.9107 32.4862 45.9099C33.1333 45.9099 33.658 45.3851 33.658 44.738C33.658 44.0908 33.1333 43.5662 32.4862 43.5662Z" fill="#F1CDB3"/>
<path d="M26.1919 38.1664L24.4512 37.3688C24.2981 37.2985 24.1316 37.2621 23.9631 37.2621C23.7947 37.2621 23.6282 37.2985 23.475 37.3688L21.7342 38.1664C21.1458 38.4359 20.8873 39.1314 21.157 39.7198C21.221 39.8597 21.3121 39.9856 21.4248 40.0904C21.5376 40.1951 21.6698 40.2766 21.8141 40.3302C21.9584 40.3838 22.1118 40.4085 22.2655 40.4028C22.4193 40.3971 22.5705 40.3612 22.7104 40.2971L23.963 39.7232L25.2156 40.2971C25.8037 40.5669 26.4995 40.3082 26.7691 39.7198C27.0388 39.1314 26.7802 38.4358 26.1919 38.1664Z" fill="#F1CDB3"/>
<path d="M38.8423 38.1662L37.1016 37.3686C36.9485 37.2983 36.782 37.262 36.6135 37.262C36.4451 37.262 36.2786 37.2983 36.1255 37.3686L34.3847 38.1662C33.7963 38.4357 33.5378 39.1312 33.8075 39.7196C34.0771 40.3083 34.7726 40.5669 35.3609 40.2969L36.6135 39.723L37.8662 40.2969C38.019 40.3672 38.1853 40.4036 38.3535 40.4036C38.7977 40.4036 39.2225 40.1498 39.4196 39.7196C39.6892 39.1312 39.4308 38.4357 38.8423 38.1662Z" fill="#F1CDB3"/>
</svg>
